ukui-icon-theme-default/scalable/actions/package-available-locked.svg

<?xml version="1.0" encoding="iso-8859-1"?>
<!-- Generator: Adobe Illustrator 24.0.0, SVG Export Plug-In . SVG Version: 6.00 Build 0)  -->
<svg version="1.1" id="O" xmlns="http://www.w3.org/2000/svg" xmlns:xlink="http://www.w3.org/1999/xlink" x="0px" y="0px"
	 viewBox="0 0 16 16" style="enable-background:new 0 0 16 16;" xml:space="preserve">
<title>16</title>
<g id="_16">
	<g id="_16-2">
		<path style="fill:none;stroke:#888888;stroke-linecap:round;stroke-miterlimit:10;" d="M7.5,14.6l-6-2V4.29l6.9-2.8l6,1.9V8"/>
		<line style="fill:none;stroke:#888888;stroke-linecap:round;stroke-miterlimit:10;" x1="7.5" y1="14.5" x2="7.5" y2="6.5"/>
		<polyline style="fill:none;stroke:#888888;stroke-miterlimit:10;" points="1.5,4.49 7.5,6.49 14.5,3.49 		"/>
		<path style="fill:#808080;" d="M14,12v2h-4v-2H14 M14,11h-4c-0.552,0-1,0.448-1,1v2c0,0.552,0.448,1,1,1h4c0.552,0,1-0.448,1-1v-2
			C15,11.448,14.552,11,14,11z"/>
		<path style="fill:none;stroke:#808080;stroke-miterlimit:10;" d="M10.5,12v-2c0.016-0.823,0.677-1.489,1.5-1.51l0,0
			c0.823,0.021,1.484,0.687,1.5,1.51v2"/>
	</g>
</g>
</svg>

<svg id="O" xmlns="http://www.w3.org/2000/svg" viewBox="0 0 16 16"><defs><style>.cls-1,.cls-2,.cls-4{fill:none;stroke-miterlimit:10;}.cls-1,.cls-2{stroke:#888;}.cls-1{stroke-linecap:round;}.cls-3{fill:gray;}.cls-4{stroke:gray;}</style></defs><title>16</title><g id="_16" data-name="16"><g id="_16-2" data-name="16"><path class="cls-1" d="M7.5,14.6l-6-2V4.29l6.9-2.8,6,1.9V8"/><line class="cls-1" x1="7.5" y1="14.5" x2="7.5" y2="6.5"/><polyline class="cls-2" points="1.5 4.49 7.5 6.49 14.5 3.49"/><path class="cls-3" d="M14,12v2H10V12h4m0-1H10a1,1,0,0,0-1,1v2a1,1,0,0,0,1,1h4a1,1,0,0,0,1-1V12a1,1,0,0,0-1-1Z"/><path class="cls-4" d="M10.5,12V10A1.54,1.54,0,0,1,12,8.49h0A1.54,1.54,0,0,1,13.5,10v2"/></g></g></svg>
